illustfolio3/dist/images/compare_color.svg

<svg width="40" height="40" viewBox="0 0 40 40" fill="none" xmlns="http://www.w3.org/2000/svg">
<mask id="mask0_1636_406" style="mask-type:alpha" maskUnits="userSpaceOnUse" x="0" y="0" width="40" height="40">
<rect width="40" height="40" fill="#D9D9D9"/>
</mask>
<g mask="url(#mask0_1636_406)">
<path d="M14.4722 34.2222L4.11141 23.8614C3.85197 23.5997 3.65752 23.3121 3.52808 22.9985C3.39836 22.6849 3.3335 22.3595 3.3335 22.0222C3.3335 21.6853 3.39836 21.3613 3.52808 21.0502C3.65752 20.7391 3.85197 20.4539 4.11141 20.1947L14.2502 10.0697L10.6252 6.44475C10.3382 6.15752 10.1924 5.81947 10.1877 5.43058C10.1829 5.04169 10.3242 4.69919 10.6114 4.40308C10.8984 4.10669 11.2449 3.9585 11.651 3.9585C12.0568 3.9585 12.4093 4.10669 12.7085 4.40308L28.5002 20.1947C28.7682 20.4539 28.9625 20.7391 29.0831 21.0502C29.2036 21.3613 29.2639 21.6853 29.2639 22.0222C29.2639 22.3595 29.2036 22.6849 29.0831 22.9985C28.9625 23.3121 28.7682 23.5997 28.5002 23.8614L18.1389 34.2222C17.8797 34.4817 17.5946 34.6761 17.2835 34.8056C16.9724 34.9353 16.6484 35.0002 16.3114 35.0002C15.9742 35.0002 15.6488 34.9353 15.3352 34.8056C15.0216 34.6761 14.7339 34.4817 14.4722 34.2222ZM16.3197 12.1389L6.40308 22.0556H26.2364L16.3197 12.1389ZM33.2127 35.0002C32.2618 35.0002 31.4563 34.6675 30.796 34.0022C30.1357 33.3367 29.8056 32.5211 29.8056 31.5556C29.8056 30.8189 29.9607 30.1232 30.271 29.4685C30.5813 28.8138 30.9632 28.1947 31.4168 27.6114L32.4031 26.3335C32.6159 26.0649 32.8913 25.9284 33.2293 25.9239C33.5674 25.9192 33.8428 26.0511 34.0556 26.3197L35.0556 27.6114C35.4817 28.1947 35.8567 28.8138 36.1806 29.4685C36.5048 30.1232 36.6668 30.8189 36.6668 31.5556C36.6668 32.5211 36.3289 33.3367 35.6531 34.0022C34.977 34.6675 34.1635 35.0002 33.2127 35.0002Z" fill="#4B4B4B"/>
</g>
</svg>

<svg width="40" height="40" fill="none" xmlns="http://www.w3.org/2000/svg"><mask id="a" style="mask-type:alpha" maskUnits="userSpaceOnUse" x="0" y="0" width="40" height="40"><path fill="#D9D9D9" d="M0 0h40v40H0z"/></mask><g mask="url(#a)"><path d="m14.472 34.222-10.36-10.36a2.669 2.669 0 0 1-.584-.863 2.53 2.53 0 0 1 0-1.949 2.64 2.64 0 0 1 .583-.855l10.14-10.125-3.626-3.625a1.414 1.414 0 0 1-.437-1.014 1.405 1.405 0 0 1 .423-1.028 1.394 1.394 0 0 1 1.04-.444c.406 0 .758.148 1.058.444L28.5 20.195c.268.259.462.544.583.855a2.711 2.711 0 0 1 0 1.949c-.12.313-.315.6-.583.862L18.14 34.222a2.64 2.64 0 0 1-.855.584 2.53 2.53 0 0 1-1.948 0 2.67 2.67 0 0 1-.864-.584ZM16.32 12.14l-9.917 9.917h19.833L16.32 12.14ZM33.213 35c-.951 0-1.757-.333-2.417-.998-.66-.665-.99-1.48-.99-2.446 0-.737.155-1.433.465-2.088a9.984 9.984 0 0 1 1.146-1.857l.986-1.277a1.02 1.02 0 0 1 .826-.41.987.987 0 0 1 .827.396l1 1.291c.426.584.8 1.203 1.125 1.857.324.655.486 1.35.486 2.088 0 .965-.338 1.78-1.014 2.446a3.354 3.354 0 0 1-2.44.998Z" fill="#4B4B4B"/></g></svg>
